X:1
T:Title
%%score 1 { ( 2 4 6 ) | ( 3 5 ) }
L:1/8
M:4/4
K:G
V:1 treble nm="Akkordion"
V:2 treble nm="Grand Piano"
V:4 treble 
V:6 treble 
V:3 bass 
V:5 bass 
V:1
 z4 z2[Q:1/4=100] d>c | B2 A>G E2 F>G | D6 B,>D | G2 F>G A2 G>A |[M:3/4] B6 |[M:1/4] d>c | %6
[M:4/4] B2 A>G E2 F>G | D6 D>G | B2 d>B A2 B>A |[M:3/4] G6 |[M:1/4] G>G |[M:4/4] c2 c>c c2 G>A | %12
 B6 B>B | B2 A>B A2 E>G |[M:3/4] F6 |[M:1/4] D>D |[M:4/4] G2 G>G B2 A>G | c6 G>A | B2 d>B A2 B>A | %19
[M:3/4] G6 |[M:6/8][Q:1/4=81] z6 | z6 | z6 | z6 | z6 |[M:7/8] z7 | %26
 z7[Q:1/4=80][Q:1/4=79][Q:1/4=77] | %27
[M:5/8] z5[Q:1/4=76][Q:1/4=75][Q:1/4=74][Q:1/4=73][Q:1/4=71][Q:1/4=70][Q:1/4=69][Q:1/4=68][Q:1/4=67][Q:1/4=66][Q:1/4=64][Q:1/4=63][Q:1/4=62] | %28
 z5 |] %29
V:2
 z8 | G,2 G2[K:bass] C,2[K:treble] G2 | z2 G2 G2 G2 | G,2 G2 D,2 A2 |[M:3/4] z2 G2 G2 |[M:1/4] G2 | %6
[M:4/4] G,2 G2[K:bass] C,2[K:treble] G2 | z2 G2 G2 G2 | G,2 G2 D,2 F2 |[M:3/4] z2 G2 G2 | %10
[M:1/4] z2 |[M:4/4] [EGc]2 c2 [EGc]2 [Gc]2 | [DGB]2 [DGB]2 [DGB]2 [DGB]2 | [^CGB]2 z2 [CEGA]2 z2 | %14
[M:3/4] [DFA]6 |[M:1/4] [CDF]2 |[M:4/4] [B,DG]2 z2 [B,DG]2 z2 | [CGc]2 z2 [CGc]2 z2 | %18
 [DGB]2 z2 [CDFA]2 [CDF]2 |[M:3/4] G2- [EG-]2 [DG]2 |[M:6/8] z [FA]2- [FA]2- [FA]/ z/ | .[FA]3 z3 | %22
 B/B/ A2 d[G^c]>[GB] | [G^c]d->[Fd-] [Fd-] [Fd]2 | [Fc]/[Fc]<B_B/ =B G2 | %25
[M:7/8] G/G<[EGA][EGA]/ [E^GB] [EAc]3 | [DEB]/[CEA]/ G3 G/A/ B>c |[M:5/8] z G- G3- | G z z z2 |] %29
V:3
 z8 | G,,2 [B,D]2 C,,2 [CE]2 | z2 [B,D]2 [B,D]2 [B,D]2 | G,,2 [B,D]2 D,,2 [DF]2 | %4
[M:3/4] z2 [B,D]2 [B,D]2 |[M:1/4] [B,D]2 |[M:4/4] G,,2 [B,D]2 C,,2 [CE]2 | %7
 z2 [B,D]2 [B,D]2 [B,D]2 | G,,2 [B,D]2 D,,2 [CD]2 |[M:3/4] z2 [B,D]2 [B,D]2 |[M:1/4] z2 | %11
[M:4/4] [C,,C,]2 [EG]2 [C,,C,]2 ^D2 | G,,2 D,2 G,2 G,,2 | [A,,,A,,]2 z2 [A,,,A,,]2 z2 | %14
[M:3/4] [D,,D,]6 |[M:1/4] [D,,D,]2 |[M:4/4] [G,,G,]2 z2 [=F,,=F,]2 z2 | [E,,E,]2 z2 [^D,,^D,]2 z2 | %18
 [D,,D,]2 z2 [D,,D,]2 [D,,D,]2 |[M:3/4] z2 C2 B,2 |[M:6/8] [D,D]/[D,D]<[D,D]D,/ .D,2 z/ E/ | %21
 D,/D,<G,G,/ G, G,2 | [G,DG]/[G,DG]/ [A,DF]2 [A,F][K:bass][A,,A,]>[A,,A,] | %23
 [A,,A,][D,A,]>[D,A,] [D,A,] [D,A,]2 | [D,D]/[D,D]<[K:treble][G,DG][G,^CG]/ [G,DG] [G,B,]2 | %25
[M:7/8] [G,B,]/[K:bass][G,B,]<C,C,/ B,, A,,3 | B,,/C,/ [D,B,D]3 [E,A,^C]/[E,A,C]/ [D,G,D]>[D,A,D] | %27
[M:5/8] [D,CD] z z/ _B,/ C=B,- | B, z z z2 |] %29
V:4
 x8 | x4[K:bass] x2[K:treble] x2 | G,6 z2 | x8 |[M:3/4] G,6 |[M:1/4] x2 | %6
[M:4/4] x4[K:bass] x2[K:treble] x2 | G,6 z2 | x8 |[M:3/4] G,6 |[M:1/4] x2 |[M:4/4] x8 | x8 | x8 | %14
[M:3/4] x6 |[M:1/4] x2 |[M:4/4] x8 | x8 | x8 |[M:3/4] [B,D]2 z2 z2 | %20
[M:6/8] F<.[EG] z/ D/ .D2 z/ G/ | D/D/ [DGB]2- [DGB]3 | x6 | z F2 z3 | x6 |[M:7/8] x7 | x7 | %27
[M:5/8] A[B,D]>^C ED- | D z z z2 |] %29
V:5
 x8 | x8 | G,,6 z2 | x8 |[M:3/4] G,,6 |[M:1/4] x2 |[M:4/4] x8 | G,,6 z2 | x8 |[M:3/4] G,,6 | %10
[M:1/4] x2 |[M:4/4] x8 | x8 | x8 |[M:3/4] x6 |[M:1/4] x2 |[M:4/4] x8 | x8 | x8 | %19
[M:3/4] [G,,,G,,]6 |[M:6/8] z3 z D,2 | x6 | x4[K:bass] x2 | x6 | x[K:treble] x5 | %25
[M:7/8] x/[K:bass] x13/2 | x7 |[M:5/8] z G,,- G,,3- | G,, z z z2 |] %29
V:6
 x8 | x4[K:bass] x2[K:treble] x2 | x8 | x8 |[M:3/4] x6 |[M:1/4] x2 | %6
[M:4/4] x4[K:bass] x2[K:treble] x2 | x8 | x8 |[M:3/4] x6 |[M:1/4] x2 |[M:4/4] x8 | x8 | x8 | %14
[M:3/4] x6 |[M:1/4] x2 |[M:4/4] x8 | x8 | x8 |[M:3/4] x6 |[M:6/8] z3 z D2 | x6 | x6 | x6 | x6 | %25
[M:7/8] x7 | x7 |[M:5/8] x5 | x5 |] %29

